icons/glyphs/glyph-mouse.svg

<?xml version="1.0" encoding="UTF-8" standalone="no"?><svg height="22" viewBox="0 0 5.8208332 5.8208335" width="22" xmlns="http://www.w3.org/2000/svg"><sodipodi:namedview/><metadata><rdf:RDF><cc:Work><dc:format>image/svg+xml</dc:format><dc:type/><dc:title/></cc:Work></rdf:RDF></metadata><path d="m10.287109.03515625c-3.6272085.35537098-6.443359 3.39744385-6.443359 7.12109375v.6640625h6.443359zm1.425782 0v7.78515625h6.443359v-.6640625c0-3.7236499-2.81615-6.76572277-6.443359-7.12109375zm-7.869141 9.21093755v5.5976562c0 3.964145 3.1921046 7.15625 7.15625 7.15625 3.964146 0 7.15625-3.192105 7.15625-7.15625v-5.5976562z" fill="#d0d0d0" stroke-linecap="square" stroke-width="1.5" transform="scale(.26458333)"/></svg>

<?xml version="1.0" encoding="UTF-8" standalone="no"?>
<!-- Created with Inkscape (http://www.inkscape.org/) -->

<svg
   xmlns:dc="http://purl.org/dc/elements/1.1/"
   xmlns:cc="http://creativecommons.org/ns#"
   xmlns:rdf="http://www.w3.org/1999/02/22-rdf-syntax-ns#"
   xmlns:svg="http://www.w3.org/2000/svg"
   xmlns="http://www.w3.org/2000/svg"
   xmlns:sodipodi="http://sodipodi.sourceforge.net/DTD/sodipodi-0.dtd"
   xmlns:inkscape="http://www.inkscape.org/namespaces/inkscape"
   width="22"
   height="22"
   viewBox="0 0 5.8208332 5.8208335"
   version="1.1"
   id="svg8"
   inkscape:version="0.92+devel 15700 custom"
   sodipodi:docname="glyph-mouse.svg">
  <defs
     id="defs2" />
  <sodipodi:namedview
     id="base"
     pagecolor="#002466"
     bordercolor="#ffffff"
     borderopacity="0.29019608"
     inkscape:pageopacity="1"
     inkscape:pageshadow="2"
     inkscape:zoom="26.42008"
     inkscape:cx="11"
     inkscape:cy="11"
     inkscape:document-units="px"
     inkscape:current-layer="svg8"
     inkscape:document-rotation="0"
     showgrid="false"
     units="px"
     inkscape:showpageshadow="false"
     borderlayer="true"
     inkscape:window-width="1920"
     inkscape:window-height="1054"
     inkscape:window-x="0"
     inkscape:window-y="0"
     inkscape:window-maximized="1"
     inkscape:snap-page="true"
     inkscape:snap-bbox="true"
     inkscape:bbox-paths="true"
     inkscape:bbox-nodes="true"
     inkscape:snap-bbox-edge-midpoints="true" />
  <metadata
     id="metadata5">
    <rdf:RDF>
      <cc:Work
         rdf:about="">
        <dc:format>image/svg+xml</dc:format>
        <dc:type
           rdf:resource="http://purl.org/dc/dcmitype/StillImage" />
        <dc:title></dc:title>
      </cc:Work>
    </rdf:RDF>
  </metadata>
  <path
     style="fill:#d0d0d0;stroke-width:1.5;stroke-linecap:square"
     d="M 10.287109 0.03515625 C 6.6599005 0.39052723 3.84375 3.4326001 3.84375 7.15625 L 3.84375 7.8203125 L 10.287109 7.8203125 L 10.287109 0.03515625 z M 11.712891 0.03515625 L 11.712891 7.8203125 L 18.15625 7.8203125 L 18.15625 7.15625 C 18.15625 3.4326001 15.3401 0.39052723 11.712891 0.03515625 z M 3.84375 9.2460938 L 3.84375 14.84375 C 3.84375 18.807895 7.0358546 22 11 22 C 14.964146 22 18.15625 18.807895 18.15625 14.84375 L 18.15625 9.2460938 L 3.84375 9.2460938 z "
     transform="scale(0.26458333)"
     id="rect4283"
     inkscape:label="#glyphs" />
</svg>
